X: 14215
T: Full Of Joy
R: polka
M: 2/4
K: Gmajor
[M:4/4]
d2 de d2 cA|d2 de d2 cA|dedA dedA|c2 BA GA B2|d2 de d2 cA|
ddde d2 cA|dedA dedA|GAED G2 z2||Bc B2 AB A2|GABc A4|c3 B ABAG|
FGAB ABAG|AAAB AAAB|AAAd c3 B|ABcd BcAF|G4 [g2B2D2] z2||
|:d6 eg|d6 e2|g2 ag ed ^c2|d6 z2|d3 e g2 a2|bd' a2 a2 g2|
e3 d ^cd e2|d6 z2|g3 a g2 e2|d3 e g2 a2|dega dged|
A2 =c2c2 BA|d2 d2 d2 eg|d6 cB|ABAG FGAF|G6 z2:|

